X:1
T:Title
%%score { 1 | ( 2 3 ) }
L:1/8
M:3/4
K:F
V:1 treble nm="Grand Piano"
V:2 bass 
V:3 bass 
V:1
 z2 z2[Q:1/4=100] A>G | [A,F]3 F EF | [B,G]4 B>A | [B,G]3 G FG |[M:2/4] [CA]4 |[M:1/4] A>G | %6
[M:3/4] [A,F]3 F GA | [DB]4 dd | cB A2 G2 |[M:2/4] [A,F]4 |[M:1/4] [FAc]>[FAc] | %11
[M:3/4] [FAc]3 [CFA] [B,CG][A,CF] | [B,DF]2 [B,DB]2 [FBd]>[FBd] | [FAc]3 [CFA] [CEG][=B,FG] | %14
[M:2/4] [EG]4 |[M:1/4] [Ec]>[Ec] |[M:3/4] c3 A Bc | d2 B2 dd | %18
 cF .[FA]2 .[EG]B,[Q:1/4=97][Q:1/4=94][Q:1/4=91][Q:1/4=88][Q:1/4=84][Q:1/4=81][Q:1/4=78] | %19
[M:2/4] .F2 z2 |] %20
V:2
 z2 z2 C>B, | z2 z A, G,A, | z2 z2 D>C | z2 z B, A,B, |[M:2/4] F,,4 |[M:1/4] C>B, | %6
[M:3/4] z2 z A, B,C | z2 z2 B,B, | A,D C2 B,2 |[M:2/4] F,,4 |[M:1/4] F,>F, |[M:3/4] F,3 F, F,F, | %12
 B,,2 B,,2 B,,>B,, | F,3 F, G,G, |[M:2/4] [C,C]4 |[M:1/4] [C,C]>[C,B,] | %16
[M:3/4][K:treble] [F,A,F]3 [F,CF] [G,CE][A,CF] | [B,F]2 [B,DF]2 [B,FB][B,FB] | %18
 [CFA][K:bass][A,C] [C,C]2 .[C,C]2 |[M:2/4] .C2 z2 |] %20
V:3
 x6 | F,,6 | C,6 | C,6 |[M:2/4] x4 |[M:1/4] x2 |[M:3/4] F,,6 | B,,6 | C,6 |[M:2/4] x4 |[M:1/4] x2 | %11
[M:3/4] x6 | x6 | x6 |[M:2/4] x4 |[M:1/4] x2 |[M:3/4][K:treble] x6 | x6 | x[K:bass] x5 | %19
[M:2/4] [F,A,]4 |] %20

